static/assets/img/icons/theme/food/carrot.svg

<svg height="24" viewBox="0 0 24 24" width="24" xmlns="http://www.w3.org/2000/svg"><g fill="none" fill-rule="evenodd"><path d="m0 0h24v24h-24z" opacity="0"/><g fill="#000"><path d="m14.3724866.19082253c-3.0572917 5.22238163-3.0572917 9.04591104 0 11.47058827 2.9322916-2.42467723 2.9322916-6.24820664 0-11.47058827z" opacity=".3" transform="matrix(.96592583 .25881905 .25881905 -.96592583 -1.045659 7.942565)"/><path d="m17.5544671 3.37280304c-3.0572917 5.22238164-3.0572917 9.04591106 0 11.47058826 2.9322917-2.4246772 2.9322917-6.24820662 0-11.47058826z" opacity=".3" transform="matrix(.25881905 .96592583 -.96592583 .25881905 21.77404 -10.160287)"/><path d="m15.9634768 1.78181278c-3.0572916 5.22238164-3.0572916 9.04591102 0 11.47058822 2.9322917-2.4246772 2.9322917-6.24820658 0-11.47058822z" opacity=".3" transform="matrix(.70710678 .70710678 -.70710678 .70710678 9.977262 -9.053028)"/><path d="m2.57844233 17.5134712.28982969.2898297c.39052429.3905243 1.02368927.3905243 1.41421356 0s.39052429-1.0236893 0-1.4142136l-.69116262-.6911626 1.01288063-1.8155465 1.09249555 1.0924955c.39052429.3905243 1.02368927.3905243 1.41421356 0 .3905243-.3905243.3905243-1.0236892 0-1.4142135l-1.41421356-1.4142136c-.02649754-.0264975-.05411215-.0511972-.08269224-.0740989l1.01595795-1.8210625 1.89516142 1.8951614c.39052429.3905243 1.02368927.3905243 1.41421356 0 .39052427-.3905243.39052427-1.0236893 0-1.4142136l-2.12132035-2.1213203c-.05838291-.05838291-.12218882-.10803765-.18979625-.14896421l.24454111-.4383298c.53814845-.96460875 1.75637385-1.31032313 2.72098256-.77217469.1612422.08995587.309251.20180648.4398096.33236508l4.8826951 4.88269502c.7810485.7810486.7810485 2.0473785 0 2.8284271-.1305586.1305586-.2785675.2424092-.4398096.3323651l-12.00769113 6.6990065c-.65870226.3674853-1.48130754.2530236-2.0146621-.2803309-.53335455-.5333546-.64781627-1.3559599-.28033091-2.0146621z"/></g></g></svg>

<svg width="24px" height="24px" viewBox="0 0 24 24" version="1.1" xmlns="http://www.w3.org/2000/svg" xmlns:xlink="http://www.w3.org/1999/xlink">
    <title>Icon For Carrot</title>
    <g stroke="none" stroke-width="1" fill="none" fill-rule="evenodd">
        <rect opacity="0" x="0" y="0" width="24" height="24"></rect>
        <path d="M14.3724866,0.190822526 C11.3151949,5.41320416 11.3151949,9.23673357 14.3724866,11.6614108 C17.3047782,9.23673357 17.3047782,5.41320416 14.3724866,0.190822526 Z" fill="#000000" opacity="0.3" transform="translate(14.325612, 5.926117) scale(-1, 1) rotate(-195.000000) translate(-14.325612, -5.926117) "></path>
        <path d="M17.5544671,3.37280304 C14.4971754,8.59518468 14.4971754,12.4187141 17.5544671,14.8433913 C20.4867588,12.4187141 20.4867588,8.59518468 17.5544671,3.37280304 Z" fill="#000000" opacity="0.3" transform="translate(17.507592, 9.108097) rotate(-645.000000) translate(-17.507592, -9.108097) "></path>
        <path d="M15.9634768,1.78181278 C12.9061852,7.00419442 12.9061852,10.8277238 15.9634768,13.252401 C18.8957685,10.8277238 18.8957685,7.00419442 15.9634768,1.78181278 Z" fill="#000000" opacity="0.3" transform="translate(15.916602, 7.517107) rotate(-315.000000) translate(-15.916602, -7.517107) "></path>
        <path d="M2.57844233,17.5134712 L2.86827202,17.8033009 C3.25879631,18.1938252 3.89196129,18.1938252 4.28248558,17.8033009 C4.67300987,17.4127766 4.67300987,16.7796116 4.28248558,16.3890873 L3.59132296,15.6979247 L4.60420359,13.8823782 L5.69669914,14.9748737 C6.08722343,15.365398 6.72038841,15.365398 7.1109127,14.9748737 C7.501437,14.5843494 7.501437,13.9511845 7.1109127,13.5606602 L5.69669914,12.1464466 C5.6702016,12.1199491 5.64258699,12.0952494 5.6140069,12.0723477 L6.62996485,10.2512852 L8.52512627,12.1464466 C8.91565056,12.5369709 9.54881554,12.5369709 9.93933983,12.1464466 C10.3298641,11.7559223 10.3298641,11.1227573 9.93933983,10.732233 L7.81801948,8.6109127 C7.75963657,8.55252979 7.69583066,8.50287505 7.62822323,8.46194849 L7.87276434,8.02361869 C8.41091279,7.05900994 9.62913819,6.71329556 10.5937469,7.251444 C10.7549891,7.34139987 10.9029979,7.45325048 11.0335565,7.58380908 L15.9162516,12.4665041 C16.6973001,13.2475527 16.6973001,14.5138826 15.9162516,15.2949312 C15.785693,15.4254898 15.6376841,15.5373404 15.476442,15.6272963 L3.46875087,22.3263028 C2.81004861,22.6937881 1.98744333,22.5793264 1.45408877,22.0459719 C0.920734216,21.5126173 0.806272498,20.690012 1.17375786,20.0313098 L2.57844233,17.5134712 Z" fill="#000000"></path>
    </g>
</svg>
